_assets/images/vector/agile_icon.svg

<svg viewBox="0 0 33 33" xmlns="http://www.w3.org/2000/svg" xmlns:xlink="http://www.w3.org/1999/xlink"><g transform="translate(-31652 -5443)"><mask id="b"><use xlink:href="#a" fill="#fff" transform="translate(31652 5446)"/></mask><g mask="url(#b)"><use xlink:href="#c" transform="translate(31652 5446)" fill="#A6A6A6"/></g></g><g transform="translate(-31652 -5443)"><mask id="e"><use xlink:href="#d" fill="#fff" transform="translate(31666 5443)"/></mask><g mask="url(#e)"><use xlink:href="#f" transform="translate(31666 5443)" fill="#A6A6A6"/></g></g><defs><path id="a" d="M15 30c8.284 0 15-6.716 15-15H15V0C6.716 0 0 6.716 0 15c0 8.284 6.716 15 15 15z"/><path id="c" d="M30 15h1v-1h-1v1zM15 0h1v-1h-1v1zm0 15h-1v1h1v-1zm14 0c0 7.732-6.268 14-14 14v2c8.837 0 16-7.163 16-16h-2zM15 29C7.268 29 1 22.732 1 15h-2c0 8.837 7.163 16 16 16v-2zM1 15C1 7.268 7.268 1 15 1v-2C6.163-1-1 6.163-1 15h2zm29-1H15v2h15v-2zm-14 1V0h-2v15h2z"/><path id="d" d="M19 19C19 8.507 10.493 0 0 0v19h19z"/><path id="f" d="M0 0v-1h-1v1h1zm19 19v1h1v-1h-1zM0 19h-1v1h1v-1zM0 1c9.941 0 18 8.059 18 18h2C20 7.954 11.046-1 0-1v2zm19 17H0v2h19v-2zM1 19V0h-2v19h2z"/></defs></svg>

<svg viewBox="0 0 33 33" version="1.1" xmlns="http://www.w3.org/2000/svg" xmlns:xlink="http://www.w3.org/1999/xlink">
    <g id="Canvas" transform="translate(-31652 -5443)">
        <g id="Group">
            <g id="Ellipse 4">
                <mask id="mask0_outline_ins">
                    <use xlink:href="#path0_fill" fill="white" transform="translate(31652 5446)"/>
                </mask>
                <g mask="url(#mask0_outline_ins)">
                    <use xlink:href="#path1_stroke_2x" transform="translate(31652 5446)" fill="#A6A6A6"/>
                </g>
            </g>
            <g id="Ellipse 4">
                <mask id="mask1_outline_ins">
                    <use xlink:href="#path2_fill" fill="white" transform="translate(31666 5443)"/>
                </mask>
                <g mask="url(#mask1_outline_ins)">
                    <use xlink:href="#path3_stroke_2x" transform="translate(31666 5443)" fill="#A6A6A6"/>
                </g>
            </g>
        </g>
    </g>
    <defs>
        <path id="path0_fill" d="M 15 30C 23.2843 30 30 23.2843 30 15L 15 15L 15 0C 6.71573 0 0 6.71573 0 15C 0 23.2843 6.71573 30 15 30Z"/>
        <path id="path1_stroke_2x" d="M 30 15L 31 15L 31 14L 30 14L 30 15ZM 15 0L 16 0L 16 -1L 15 -1L 15 0ZM 15 15L 14 15L 14 16L 15 16L 15 15ZM 29 15C 29 22.732 22.732 29 15 29L 15 31C 23.8366 31 31 23.8366 31 15L 29 15ZM 15 29C 7.26801 29 1 22.732 1 15L -1 15C -1 23.8366 6.16344 31 15 31L 15 29ZM 1 15C 1 7.26801 7.26801 1 15 1L 15 -1C 6.16344 -1 -1 6.16344 -1 15L 1 15ZM 30 14L 15 14L 15 16L 30 16L 30 14ZM 16 15L 16 0L 14 0L 14 15L 16 15Z"/>
        <path id="path2_fill" d="M 19 19C 19 8.50659 10.4934 0 0 0L 0 19L 19 19Z"/>
        <path id="path3_stroke_2x" d="M 0 0L 0 -1L -1 -1L -1 0L 0 0ZM 19 19L 19 20L 20 20L 20 19L 19 19ZM 0 19L -1 19L -1 20L 0 20L 0 19ZM 0 1C 9.94112 1 18 9.05888 18 19L 20 19C 20 7.95431 11.0457 -1 0 -1L 0 1ZM 19 18L 0 18L 0 20L 19 20L 19 18ZM 1 19L 1 0L -1 0L -1 19L 1 19Z"/>
    </defs>
</svg>
